X: 34487
T: Riding On A Load Of Hay
R: slide
M: 12/8
K: Gmajor
|:d2 g gdB G2 B AGE|EAA ABd e2 d B2 c|
d2 g gdB G2 B AGE|1 EAA ABA G3 z Bc:|2 EAA ABA G3 GAB||
|:ABA ABd e2 d B2 G|ABA ABd e2 d B2 c|1 d2 g gdB G2 B AGE|
EAA ABA G3 GAB:|2 d2 g gdB G2 B AGE|EAA ABA G3 G3||

